data/styles/clear/style-night/symbols/dog_park-m.svg

<svg height="24" viewBox="0 0 24 24" width="24"><g fill="none" fill-rule="evenodd"><circle cx="12" cy="12" fill="#fff" opacity=".4" r="12"/><circle cx="12" cy="12" fill="#3d3d36" r="11"/><path d="m15.01191 12.271339.1049846-.2799746-2.3987649-2.2116171-4.58403177.5763112-.41464491-2.44705023h-.83722982v4.57594763l-.8822232 4.5141351h.67137186c.36965152 0 .78517865-.3036088.92633436-.6781202l1.03661226-2.7579311 4.74724302.8853741.5337451 1.8534678c.1111601.3854196.5161005.6981184.9060432.6981184h.3537715l-.387296-4.1305336zm.8328187-4.29233709-.3167181-.97900191h-.7057786v.66266703c-.189678.20089083-.6069695.63266976-1.0172033 1.05354059l1.8879576 1.74075088.0008822-.0027271h1.153948c.6360829 0 1.1521835-.48904642 1.1521835-1.0917189v-.3626943z" fill="#fff" opacity=".6"/></g></svg>

<svg width="24" height="24" viewBox="0 0 24 24">
  <g fill="none" fill-rule="evenodd">
    <circle cx="12" cy="12" r="12" fill="#FFF" opacity=".4"/>
    <circle cx="12" cy="12" r="11" fill="#3D3C36"/>
    <path fill="#FFF" d="M15.01191,12.271339 L15.1168946,11.9913644 L12.7181297,9.7797473 L8.13409793,10.3560585 L7.71945302,7.90900827 L6.8822232,7.90900827 L6.8822232,12.4849559 L6,16.999091 L6.67137186,16.999091 C7.04102338,16.999091 7.45655051,16.6954822 7.59770622,16.3209708 L8.63431848,13.5630397 L13.3815615,14.4484138 L13.9153066,16.3018816 C14.0264667,16.6873012 14.4314071,17 14.8213498,17 L15.1751213,17 L14.7878253,12.8694664 L15.01191,12.271339 L15.01191,12.271339 Z M15.8447287,7.97900191 L15.5280106,7 L14.822232,7 L14.822232,7.66266703 C14.632554,7.86355786 14.2152625,8.29533679 13.8050287,8.71620762 L15.6929863,10.4569585 L15.6938685,10.4542314 L16.8478165,10.4542314 C17.4838994,10.4542314 18,9.96518498 18,9.3625125 L18,8.9998182 L15.8447287,7.97900191 L15.8447287,7.97900191 Z" opacity=".6"/>
  </g>
</svg>
